!!!OTL@@DE: Die Auserw&auml;hlte
!!!ONB: Volksweise
!!!ODT: 1828
!!!OMD: Leicht bewegt
!!!ONB: Schw&auml;bisch
!!!LDT: 1836
!!!OCL: Erk, Ludwig
!!!GCO: Deutscher Liederschatz, Band 1
**kern	**kern	**kern
*staff3	*staff2	*staff1
*Ipiano	*Ipiano	*Ivox
*clefF4	*clefG2	*clefG2
*k[b-]	*k[b-]	*k[b-]
*F:	*F:	*F:
*met(C)	*met(C)	*met(C)
*M4/4	*M4/4	*M4/4
*MM92	*MM92	*MM92
4r	(12f/ 12a/L	(12a/
.	12f/ 12a/	12a/
.	12g/) 12b-/J	12b-\)
=1	=1	=1
8FF/L	8a\ 8cc\L	8cc\
8C/	8a\ 8cc\	8cc\
8F/	8a\ 8cc\	8cc\
8C/J	8a\ 8cc\J	8cc\
8FF/L	8g#\ 8bn\L	8bn\
8C/	8a\ 8cc\	8cc\
8F/	8b-\ 8dd\	8dd\
8C/J	8a\ 8cc\J	8cc\
=2	=2	=2
8FF/L	8a\ (8cc\L	(8cc\L
8C/	8ff\J)	8ff\J)
8F/	4f/ 4a/	4a/
8C/J	.	.
8FF/L	8r	8r
8C/	8f/ 8a/L	8a/
8F/	8f/ 8a/	8a/
8A/J	8f/J	8f/
=3	=3	=3
*M3/4	*M3/4	*M3/4
8C\L	(8.a^/ 8.cc^/L	8.cc\
8G\J	.	.
.	16g/) 16b-/Jk	16b-\
8c\L	8g/ 8b-/L	8b-\
8C\	8g/ 8b-/	8b-\
8c\	8f/ 8a/	8a/
8C\J	8e/ 8g/J	8g/
=4	=4	=4
*met(C)	*met(C)	*met(C)
*M4/4	*M4/4	*M4/4
8FF/L	8.b-^\ (8.dd^\L	(8.dd^\L
8C/	.	.
.	16a\ 16cc\Jk)	16cc\Jk)
8F/	4a\ 4cc\	4cc\
8C/J	.	.
8FF/L	4r	4r
8C/	.	.
8F/	(12f/ 12a/L	(12a/
.	12f/ 12a/	12a/
8C/J	.	.
.	12g/) 12b-/J	12b-\)
=5	=5	=5
8FF/L	8a\ 8cc\L	8cc\
8C/	8a\ 8cc\	8cc\
8F/	8a\ 8cc\	8cc\
8C/J	8a\ 8cc\J	8cc\
8FF/L	8g#\ 8bn\L	8bn\
8C/	8a\ 8cc\	8cc\
8F/	8b-\ 8dd\	8dd\
8C/J	8a\ 8cc\J	8cc\
=6	=6	=6
8FF/L	8a\ (8cc\L	(8cc\L
8C/	8ff\J)	8ff\J)
8F/	4f/ 4a/	4a/
8C/J	.	.
8FF/L	8r	8r
8C/	8f/ 8a/L	8a/
8F/	8f/ 8a/	8a/
8A/J	8f/J	8f/
=7	=7	=7
*M3/4	*M3/4	*M3/4
4B-\	8.b-^\ (8.dd^\L	8.dd^\
.	16a\ 16cc\Jk)	16cc\
4c\	8g/ 8b-/L	8b-\
.	8f/ 8a/	8a/
4C/	8g/ 8b-/	8b-\
.	8B-/ 8e/J	8e/
=8	=8	=8
4FF/	(8.B-^/ 8.e^/ 8.g^/L	(8.g^/L
.	16A/) 16f/Jk	16f/Jk)
8F\	8A/ 8f/	8f/
8r	8r	8r
8F\L	8a/L	8a/
8A\J	8f/J	8f/
=9	=9	=9
4C/	(8a^/ 8cc^/L	8cc'^\
.	8g/) 8b-/J	8b-\
4E\	8g/ 8b-/L	8b-\
.	8c/	8r
4C/	8f/ 8a/	8a/
.	8e/ 8g/J	8g/
=10	=10	=10
4FF/	8b-^\ (8dd^\L	8dd^\
.	8a\ 8cc\J)	8cc\
4F\	8a/ 8cc/L	8cc\
.	8c/	8r
8F\L	8a/	8a/
8A\J	8f/J	8f/
=11	=11	=11
4C/	(8a^/ 8cc^/L	8cc^\
.	8g/) 8b-/J	8b-\
4E\	8g/ 8b-/L	8b-\
.	8c/	8b-\
4C/	8f/ 8a/	8a/
.	8e/ 8g/J	8g/
=12	=12	=12
4FF/	8b-^\ (8dd^\L	8dd^\
.	8a\ 8cc\J)	8cc\
4F\	8a/ 8cc/L	8cc\
.	8c/J	8cc\
4F\	(12f/ 12a/L	(12a/
.	12f/ 12a/	12a/
.	12g/) 12b-/J	12b-\)
=13	=13	=13
*met(C)	*met(C)	*met(C)
*M4/4	*M4/4	*M4/4
8FF/L	8a\ 8cc\L	8cc\
8C/	8a\ 8cc\	8cc\
8F/	8a\ 8cc\	8cc\
8C/J	8a\ 8cc\J	8cc\
8FF/L	8g#\ 8bn\L	8bn\
8C/	8a\ 8cc\	8cc\
8F/	8b-\ 8dd\	8dd\
8C/J	8a\ 8cc\J	8cc\
=14	=14	=14
8FF/L	8a\ (8cc\L	(8cc\L
8C/	8ff\J)	8ff\J)
8F/	4f/ 4a/	4a/
8C/J	.	.
8FF/L	8r	8r
8C/	8f/ 8a/L	8a/
8F/	8f/ 8a/	8a/
8A/J	8f/J	8f/
=15	=15	=15
*M3/4	*M3/4	*M3/4
4B-\	8.b-^\ (8.dd^\L	8.dd^\
.	16a\ 16cc\Jk)	16cc\
4c\	8g/ 8b-/L	8b-\
.	8f/ 8a/	8a/
4C/	8g/ 8b-/	8b-\
.	8B-/ 8e/J	8e/
=16	=16	=16
4FF/	(8.B-^/ 8.e^/ 8.g^/L	(8.g^/L
.	[16A/) 16f/Jk	16f/Jk)
8F\	8A/] 8f/	8f/
8r	8r	8r
==	==	==
*-	*-	*-
!!!ENC: Craig Stuart Sapp
!!!END: 2004/05/26/
!!!EFL: 071/651
